smart-lab/build/images/icons/qn-filters/drop-arrow.svg

<svg width="12" height="12" viewBox="0 0 12 12" fill="none" xmlns="http://www.w3.org/2000/svg">
<path d="M6 9L5.29289 9.70711L6 10.4142L6.70711 9.70711L6 9ZM10.2929 3.29289L5.29289 8.29289L6.70711 9.70711L11.7071 4.70711L10.2929 3.29289ZM6.70711 8.29289L1.7071 3.29289L0.292891 4.70711L5.29289 9.70711L6.70711 8.29289Z" fill="#585858"/>
</svg>

<svg width="12" height="12" fill="none" xmlns="http://www.w3.org/2000/svg"><path d="M6 9l-.707.707.707.707.707-.707L6 9zm4.293-5.707l-5 5 1.414 1.414 5-5-1.414-1.414zm-3.586 5l-5-5L.293 4.707l5 5 1.414-1.414z" fill="#585858"/></svg>
